src/icons/SVG/24px/Navigation_Arrow_Down_24px.svg

<svg width="24" height="24" viewBox="0 0 24 24" fill="none" xmlns="http://www.w3.org/2000/svg">
  <g id="Square"> </g>
  <g id="Icon">
<path id="Vector" d="M13 3C13 2.44772 12.5523 2 12 2C11.4477 2 11 2.44772 11 3H13ZM12 21L11.2929 21.7071C11.6834 22.0976 12.3166 22.0976 12.7071 21.7071L12 21ZM17.7071 16.7071C18.0976 16.3166 18.0976 15.6834 17.7071 15.2929C17.3166 14.9024 16.6834 14.9024 16.2929 15.2929L17.7071 16.7071ZM7.70711 15.2929C7.31658 14.9024 6.68342 14.9024 6.29289 15.2929C5.90237 15.6834 5.90237 16.3166 6.29289 16.7071L7.70711 15.2929ZM11 3V21H13V3H11ZM12.7071 21.7071L17.7071 16.7071L16.2929 15.2929L11.2929 20.2929L12.7071 21.7071ZM12.7071 20.2929L7.70711 15.2929L6.29289 16.7071L11.2929 21.7071L12.7071 20.2929Z" fill="black"/>
</g>
</svg>

<svg xmlns="http://www.w3.org/2000/svg" viewBox="0 0 24 24">
  <g id="Square"> </g>
  <path d="M13 3a1 1 0 10-2 0h2zm-1 18l-.707.707a1 1 0 001.414 0L12 21zm5.707-4.293a1 1 0 00-1.414-1.414l1.414 1.414zm-10-1.414a1 1 0 00-1.414 1.414l1.414-1.414zM11 3v18h2V3h-2zm1.707 18.707l5-5-1.414-1.414-5 5 1.414 1.414zm0-1.414l-5-5-1.414 1.414 5 5 1.414-1.414z"/>
</svg>
